X:591
T:
S:Upptecknad efter Aron Gustafsson från Burs.
R:schottis
O:Gotland, Burs
M:2/4
L:1/16
K:D
f2e2 d2B2|A2FF F2F2|G2EE E2E2|D2F2 A2d2|f2e2 d2B2|A2FF F2F2|G2EE E2FE|D2D2
D2 z2::f2aa a2a2|f2d2 e2f2|g2bb b2b2|g2c2 e2g2|f2aa a2a2|f2d2 e2f2|g2A2 B2c2|e2d2 d2 z2:|

